X:168
T:Cuttymun and Treeladle
R:Reel
B:The Athole Collection
M:C|
L:1/8
K:A
e2ea e2cA|e2e=g d2B=G|e2ea ceae|=gbeg d2B=G:|
e2cA eAcA|e2cA d=GBG|e2cA eAcA|=gbeg d2B=G|
e2cA eAcA|e2cA d=GBG|e2cA ceae|=gbeg d2B=G||

